wp-content/plugins/google-analytics-for-wordpress/lite/assets/vue/img/icon-lock.svg

<svg width="13" height="15" viewBox="0 0 13 15" fill="none" xmlns="http://www.w3.org/2000/svg">
	<path
		d="M11.3125 7.75H4.53125V4.93359C4.53125 3.86719 5.37891 2.96484 6.47266 2.9375C7.56641 2.9375 8.46875 3.83984 8.46875 4.90625V5.34375C8.46875 5.72656 8.74219 6 9.125 6H10C10.3555 6 10.6562 5.72656 10.6562 5.34375V4.90625C10.6562 2.60938 8.76953 0.75 6.47266 0.75C4.17578 0.777344 2.34375 2.66406 2.34375 4.96094V7.75H1.6875C0.949219 7.75 0.375 8.35156 0.375 9.0625V13.4375C0.375 14.1758 0.949219 14.75 1.6875 14.75H11.3125C12.0234 14.75 12.625 14.1758 12.625 13.4375V9.0625C12.625 8.35156 12.0234 7.75 11.3125 7.75Z"
		fill="white"/>
</svg>

<svg width="13" height="15" fill="none" xmlns="http://www.w3.org/2000/svg"><path d="M11.313 7.75H4.53V4.934c0-1.067.848-1.97 1.942-1.997 1.093 0 1.996.903 1.996 1.97v.437c0 .383.273.656.656.656H10a.648.648 0 00.656-.656v-.438C10.656 2.61 8.77.75 6.473.75c-2.297.027-4.13 1.914-4.13 4.21v2.79h-.655c-.739 0-1.313.602-1.313 1.313v4.374c0 .739.574 1.313 1.313 1.313h9.624c.711 0 1.313-.574 1.313-1.313V9.064a1.33 1.33 0 00-1.313-1.313z" fill="#fff"/></svg>
